svg/fluentui-system-icons/ic_fluent_font_space_tracking_in_16_regular.svg

<svg width="16" height="16" viewBox="0 0 16 16" fill="none" xmlns="http://www.w3.org/2000/svg">
<path d="M5.96124 2.3077C5.88361 2.12137 5.70156 2 5.4997 2C5.29785 2 5.11579 2.12137 5.03816 2.3077L3.376 6.29704C3.37293 6.30397 3.37001 6.31098 3.36724 6.31806L2.53847 8.30721C2.43226 8.56211 2.55281 8.85484 2.80771 8.96105C3.06261 9.06725 3.35534 8.94671 3.46155 8.69181L4.16658 6.99967H6.83283L7.53786 8.69181C7.64406 8.94671 7.9368 9.06725 8.1917 8.96105C8.4466 8.85484 8.56714 8.56211 8.46094 8.30721L7.64803 6.35614C7.63805 6.32279 7.62469 6.2909 7.60834 6.26088L5.96124 2.3077ZM5.4997 3.80004L6.41618 5.99967H4.58323L5.4997 3.80004ZM5.3534 10.1463C5.15806 9.95112 4.84147 9.95125 4.6463 10.1466C4.45112 10.3419 4.45125 10.6585 4.6466 10.8537L5.29345 11.5H2.5C2.22386 11.5 2 11.7239 2 12C2 12.2761 2.22386 12.5 2.5 12.5H5.29234L4.6463 13.1466C4.45112 13.3419 4.45125 13.6585 4.6466 13.8537C4.84194 14.0489 5.15853 14.0487 5.3537 13.8534L6.8537 12.3521C6.94743 12.2583 7.00006 12.1311 7 11.9985C6.99994 11.8659 6.94721 11.7387 6.8534 11.645L5.3534 10.1463ZM10.4997 9C10.7016 9 10.8836 8.87865 10.9613 8.69234L13.4615 2.69283C13.5678 2.43794 13.4473 2.14519 13.1924 2.03897C12.9375 1.93274 12.6447 2.05326 12.5385 2.30815L10.4997 7.20021L8.46098 2.30815C8.35476 2.05326 8.06201 1.93274 7.80712 2.03897C7.55223 2.14519 7.43171 2.43794 7.53793 2.69283L10.0382 8.69234C10.1159 8.87865 10.2979 9 10.4997 9ZM11.3537 13.8534C11.1585 14.0487 10.8419 14.0489 10.6466 13.8537L9.1466 12.355C9.05279 12.2613 9.00006 12.1341 9 12.0015C8.99994 11.8689 9.05257 11.7417 9.1463 11.6479L10.6463 10.1466C10.8415 9.95125 11.1581 9.95112 11.3534 10.1463C11.5487 10.3415 11.5489 10.6581 11.3537 10.8534L10.7077 11.5L13.5 11.5C13.7761 11.5 14 11.7239 14 12C14 12.2761 13.7761 12.5 13.5 12.5L10.7066 12.5L11.3534 13.1463C11.5487 13.3415 11.5489 13.6581 11.3537 13.8534Z" fill="#212121"/>
</svg>

<svg xmlns="http://www.w3.org/2000/svg" width="16" height="16"><path d="M5.961 2.308a.5.5 0 0 0-.923 0L3.376 6.297a.517.517 0 0 0-.009.021l-.829 1.99a.5.5 0 1 0 .924.384L4.167 7h2.666l.705 1.692a.5.5 0 0 0 .923-.385l-.813-1.95a.497.497 0 0 0-.04-.096L5.961 2.308ZM5.5 3.8 6.416 6H4.583L5.5 3.8Zm-.147 6.346a.5.5 0 1 0-.706.708l.646.646H2.5a.5.5 0 0 0 0 1h2.792l-.646.647a.5.5 0 1 0 .708.706l1.5-1.5a.5.5 0 0 0 0-.708l-1.5-1.499ZM10.5 9a.5.5 0 0 0 .461-.308l2.5-6a.5.5 0 1 0-.922-.384L10.498 7.2 8.462 2.308a.5.5 0 1 0-.923.385l2.5 6A.5.5 0 0 0 10.5 9Zm.854 4.853a.5.5 0 0 1-.707 0l-1.5-1.498a.5.5 0 0 1 0-.707l1.5-1.501a.5.5 0 1 1 .707.706l-.646.647H13.5a.5.5 0 0 1 0 1h-2.793l.646.646a.5.5 0 0 1 0 .707Z"/></svg>
